src/actions/16/edit-clone-link.svg

<svg width="16" height="16" version="1.1" viewBox="0 0 16 16" xmlns="http://www.w3.org/2000/svg">
 <path d="m2 0c-1.108 0-2 0.892-2 2v8c0 1.108 0.892 2 2 2h2v2c0 1.108 0.892 2 2 2h8c1.108 0 2-0.892 2-2v-8c0-1.108-0.892-2-2-2h-2v-2c0-1.108-0.892-2-2-2zm0 1h8c0.554 0 1 0.446 1 1v2h-5c-1.108 0-2 0.892-2 2v5h-2c-0.554 0-1-0.446-1-1v-8c0-0.554 0.446-1 1-1zm4 4h8c0.554 0 1 0.446 1 1v8c0 0.554-0.446 1-1 1h-8c-0.554 0-1-0.446-1-1v-8c0-0.554 0.446-1 1-1zm3.4688 2c-0.85142 0-1.5 0.7099-1.5 1.5625v1.4375h-0.46875c-0.27497 0-0.44581 0.28527-0.5 0.59375v3.4062h6v-3.4062c0-0.3132-0.25628-0.59375-0.53125-0.59375h-0.46875v-1.4375c0-0.8526-0.67983-1.5625-1.5312-1.5625zm0 1.0312h1c0.25742 0 0.5 0.19805 0.5 0.53125v1.4375h-1.9688v-1.4375c0-0.3332 0.21133-0.53125 0.46875-0.53125zm-1.4688 2.9688h4v2h-4z" fill="#363636"/>
</svg>

<svg xmlns="http://www.w3.org/2000/svg" width="16" height="16">
    <path fill="#050505" fill-opacity=".7" d="M2 0C.892 0 0 .892 0 2v8c0 1.108.892 2 2 2h2v2c0 1.108.892 2 2 2h8c1.108 0 2-.892 2-2V6c0-1.108-.892-2-2-2h-2V2c0-1.108-.892-2-2-2zm0 1h8c.554 0 1 .446 1 1v2H6c-1.108 0-2 .892-2 2v5H2c-.554 0-1-.446-1-1V2c0-.554.446-1 1-1zm4 4h8c.554 0 1 .446 1 1v8c0 .554-.446 1-1 1H6c-.554 0-1-.446-1-1V6c0-.554.446-1 1-1zm3.469 2c-.852 0-1.5.71-1.5 1.563V10H7.5c-.275 0-.446.285-.5.594V14h6v-3.406c0-.313-.256-.594-.531-.594H12V8.563C12 7.71 11.32 7 10.469 7zm0 1.031h1c.257 0 .5.198.5.531V10H9V8.562c0-.333.211-.53.469-.53zM8 11h4v2H8z"/>
</svg>
